X:2992
T:Chips and Shavins. BF14.07
M:2/2
L:1/8
Q:200
S:MS14,Browne "D",early 19thC,Troutbeck,W'morland
R:Reel
O:England
A:Lakes
N:The last 2 bars are continued along the bottom of the next page and
N:don't really make a
N:great deal of sense.Since this collection has more or less dropped into
N:pieces perhaps there is a page missing, in which case these two bars
N:look as though they should be on the end of Calder Fair... CGP
Z:vmp.Chris Partington
K:D major
c|dAFA G2 (FE)|DFAF GEEc|dAFA G2 (FE)|DBAG FDD:|!
|:f|dfaf g2 fe|dfaf geef|dfaf g2 (fe)|dBAG FDDf|!
dfaf g2 fe|dfaf geef/a/||"On next page-see notes"fgfe dcBA|Bdced2|]


